assets/img/braze_icons/cloud-raining-03.svg

<svg fill="none" height="24" viewBox="0 0 24 24" width="24" xmlns="http://www.w3.org/2000/svg"><path d="m5.24923 6.14303c.81397-2.96487 3.52717-5.14303 6.75077-5.14303s5.9368 2.17816 6.7508 5.14303c2.4353.56658 4.2492 2.74947 4.2492 5.35697 0 3.0376-2.4624 5.5-5.5 5.5h-.973l-1.3485 3.3712c-.2051.5128-.7871.7622-1.2999.5571-.5128-.2052-.7622-.7871-.5571-1.2999l1.0514-2.6284h-1.846l-2.1485 5.3712c-.2051.5128-.78703.7622-1.29982.5571-.51278-.2052-.7622-.7871-.55708-1.2999l1.8514-4.6284h-1.84593l-1.34847 3.3712c-.20512.5128-.78709.7622-1.29987.5571-.51278-.2052-.7622-.7871-.55708-1.2999l1.05192-2.6298c-2.97912-.0673-5.37347-2.5033-5.37347-5.4986 0-2.6075 1.8139-4.79039 4.24923-5.35697z" fill="#801ed7"/></svg>

<svg width="24" height="24" viewBox="0 0 24 24" fill="none" xmlns="http://www.w3.org/2000/svg">
<path d="M5.24923 6.14303C6.0632 3.17816 8.7764 1 12 1C15.2236 1 17.9368 3.17816 18.7508 6.14303C21.1861 6.70961 23 8.8925 23 11.5C23 14.5376 20.5376 17 17.5 17H16.527L15.1785 20.3712C14.9734 20.884 14.3914 21.1334 13.8786 20.9283C13.3658 20.7231 13.1164 20.1412 13.3215 19.6284L14.3729 17H12.5269L10.3784 22.3712C10.1733 22.884 9.59137 23.1334 9.07858 22.9283C8.5658 22.7231 8.31638 22.1412 8.5215 21.6284L10.3729 17H8.52697L7.1785 20.3712C6.97338 20.884 6.39141 21.1334 5.87863 20.9283C5.36585 20.7231 5.11643 20.1412 5.32155 19.6284L6.37347 16.9986C3.39435 16.9313 1 14.4953 1 11.5C1 8.8925 2.8139 6.70961 5.24923 6.14303Z" fill="#801ED7"/>
</svg>
